!! 00053] TT[KA
!! Kassette von Frau Li Wenzhen, Peking - Zum Gesangsheft
!!!OTL: Yi ma ya ji song
!!!ARE: Sichuan, West(zwischen Tiebetund Sichuan
!! Ethnic Group: Zang
!! MM,, Seite 30, 3
!!!SCT: C1275
!!!YEM: Copyright 1995, estate of Helmut Schaffrath.
**kern
*ICvox
*Ivox
!! Mixed meters:  2/4; 3/4
*M2/4
*k[f#c#g#]
*A:
{8b
8b
16b
16dd
16ff#
16ee
=1
16ff#
16aa
[4.ff#
=2
2ff#]}
=3
{8ee
16ee
16dd
8ee
16ff#
16aa
=4
4ff#
8ee
16b
16dd
=5
8ee
8ff#
8ee
16b
16dd
=6
16ee
16dd
[4.b
=7
2b]}
=8
{8ee
8ee
16dd
16ee
16cc#
16b
=9
8a
4a
8f#}
=10
{8e
16ff#
16a
16b
16dd
8ff#
=11
8ff#
16ee
16ff#
16dd
16b
16dd
16ff#
=12
8ee
16ee
16dd
16b
16dd
16a
16dd
=13
8b
[4.b
=14
2b]}
=15
{16a
16b
16cc#
16ee
8b
8b
=16
16a
16b
16cc#
16ee
8b
8b
=17
16a
16b
16cc#
16ee
4b
8b
8r}
==
!!!AGN: Wuge, Batang xianzi. Zanmei jiaxiang
!! Die Stuecke sind meist uebersteuert, also verzerrt.
!!    Vor- und Zwischenspiel weggelassen.
!!!ONB: ESAC (Essen Associative Code) Database: CHINA
!!!AMT: irregular
!!!AIN: vox
!!!EED: Helmut Schaffrath
!!!EEV: 1.0
*-
!!!ONB: Tied note syntax fixed by Craig Sapp, 2004/05/03/
